Front/img/common-section_cover:sousmetier/illu-6.svg

<svg fill="none" xmlns="http://www.w3.org/2000/svg" viewBox="0 0 474 542"><path d="M110.5.26c-57.2-4-97.5 39-110.5 61h305c-10.667-16.5-41.5-45.8-79.5-31-47.5 18.5-43.5-25-115-30zM403.715 112.166C440.098 109.62 465.731 136.994 474 151H280c6.785-10.504 26.397-29.157 50.567-19.735 30.213 11.777 27.669-15.916 73.148-19.099z" fill="#fff"/><path d="M164.632 260.062h72.854V540H0v-33.103c0-26.867 6.509-43.659 22.589-58.531 12.864-11.899 33.437-31.185 42.115-39.341 3.574-12.314 14.013-47.784 27.184-91.155 16.463-54.213 39.052-57.808 72.744-57.808z" fill="#081B42"/><path d="M53.802 383.598c4.313 3.838 12.527 7.511 15.794 8.471l-4.73 16.504c-7.189 1.44-23.611 5.634-28.708-2.426-6.372-10.075-.98-29.745 4.9-29.266 5.882.48 7.352 1.919 12.744 6.717z" fill="#fff"/><path d="M130.217 280.928l102.35-.433v119.941c-38.604-.289-130.628 0-143.35 0-10.192 0-10.984-6.351-10.114-9.959 4.567-16.743 17.16-55.51 24.467-78.373 7.307-22.862 12.725-31.176 26.647-31.176z" fill="#E9E9EA"/><path d="M189.874 280.705l-39.735 119.716h39.937l38.687-119.922-38.889.206zM143.503 400.421l40.229-119.493h-5.404l-40.529 119.493h5.704z" fill="#fff"/><path d="M98.72 504.348c0-11.046 8.955-20 20.001-20h117.385V540H98.721v-35.652z" fill="#1C3B78"/><path d="M15.981 484.288c-1.517-6.866 3.709-13.374 10.74-13.374h42.211a11 11 0 0110.74 8.627L83.93 498.8c1.518 6.866-3.709 13.374-10.74 13.374h-42.21a11 11 0 01-10.742-8.626l-4.256-19.26z" fill="#E1E1E1"/><rect x="23.309" y="516.971" width="59.647" height="7.676" rx="3.838" fill="#E1E1E1"/><path d="M306.683 260.062h-69.886V540h234.316v-33.104c0-26.866-6.5-43.658-22.561-58.531-12.849-11.898-33.396-31.184-42.064-39.34-3.569-12.314-13.995-47.785-27.15-91.155-16.443-54.213-39.004-57.808-72.655-57.808z" fill="#081B42"/><path d="M417.541 383.598c-4.349 3.838-12.517 8.116-15.812 9.076l4.581 15.777c7.248 1.439 23.881 5.756 29.02-2.305 6.424-10.075.989-29.745-4.941-29.265-5.93.48-7.413 1.919-12.848 6.717z" fill="#fff"/><path d="M341.055 280.928l-109.077-.425-.187 119.942c38.556-.288 137.507-.009 150.215-.009 10.179 0 10.969-6.351 10.1-9.959-4.561-16.743-17.138-55.511-24.436-78.373-7.299-22.862-12.71-31.176-26.615-31.176z" fill="#E9E9EA"/><path d="M372.514 504.348c0-11.046-8.955-20-20-20H236.108V540h136.406v-35.652z" fill="#1C3B78"/><path d="M455.979 483.715c1.112-6.703-4.057-12.801-10.851-12.801h-26.315c-5.38 0-9.971 3.892-10.852 9.199l-3.196 19.26c-1.112 6.702 4.057 12.801 10.852 12.801h26.314c5.38 0 9.971-3.892 10.852-9.199l3.196-19.26z" fill="#E1E1E1"/><rect width="43.138" height="7.676" rx="3.838" transform="matrix(-1 0 0 1 447.832 516.971)" fill="#E1E1E1"/><path d="M258.824 394.743s10.864-1.461 19.56-12.275c0 0-2.169 9.091 9.429 19.505 8.033 7.189 1.767 45.487-1.617 52.246 0 0 32.052 31.58 84.226 6.288 0 0-13.104-47.691-14.058-74.655-1.175-30.619-4.719-50.303-15.443-79.21-10.724-28.907-13.265-44.857-11.809-60.076 1.456-15.219.723-39.05-26.107-44.807-26.83-5.757-30.003 25.793-30.003 25.793s-2.37 40.341 8.184 49.583c9.247 8.15 25.103-2.193 25.103-2.193s3.675 18.713-.583 25.322c0 0-5.874 6.718-20.383 12.496-15.153 6.007-17.583 50.063-25.616 58.133" fill="#E2BBA6"/><path d="M289.771 202.23c-1.074 6.558-2.791 17.092-4.377 27.475 1.004-9.783 2.861-20.616 4.147-27.395l.23-.08z" fill="#CEA999"/><path d="M273.023 227.592l12.371 2.112-.623 9.412c-.12 5.167.291 9.312 1.567 11.275 5.341 8.24 7.47-11.014 11.888-10.594 4.418.421 6.477 5.447 3.304 14.018-3.173 8.571 8.234 10.954 9.218 15.76.984 4.806 8.645 31.87 0 41.132l-13.245-4.005a40.002 40.002 0 008.194-6.398c4.257-6.608.582-25.322.582-25.322s-15.845 10.343-25.103 2.193a12.057 12.057 0 01-2.008-2.323c-5.272-7.38-6.025-26.113-6.175-30.129-.151-4.015.03-17.131.03-17.131z" fill="#CEA999"/><path d="M339.294 302.166s4.8 4.005 9.128 16.02c4.327 12.016-6.929-6.918-6.929-6.918l-1.325-6.699-.874-2.403z" fill="#292289"/><path d="M287.502 450.634S272.136 505.596 273 540h117s-1-27.5-5.5-45.5-15.975-41.213-15.975-41.213-44.533 22.819-81.023-2.653z" fill="#F4EFEF"/><path d="M181 373.5c15 2.5 51.045 11.901 69.049-5.33 13.877-13.277 20.082-49.323 35.275-55.37a70.735 70.735 0 0015.614-8.401c23.797 7.84 34.511 5.076 39.241.15.251.691 7.634 6.527 11.821 17.451 5 31 6.835 44.728 7.94 75.337 1.004 26.964 8.595 55.95 8.595 55.95-7.34 33.453-82.338.932-82.338.932 2.952-7.85 9.62-45.057 1.617-52.247-11.598-10.413-9.429-19.504-9.429-19.504-8.696 10.833-22.251 17.021-22.251 17.021C235.579 411.274 192 394.5 181 390.902V373.5z" fill="#F4C7C3"/><path d="M180.999 391v-5.5s35 16.472 57.5 13.989c7.5-.827 16.328-7.209 25.677-9.982 9.348-2.774 18.506-20.486 18.506-20.486.803 18.373 12.883 21.267 20.233 36.246 5.452 11.114 1.526 40.471-.864 54.889-9.348-3.124-15.855-5.937-15.855-5.937 2.952-7.85 9.62-45.057 1.617-52.247-11.598-10.413-9.429-19.504-9.429-19.504-8.696 10.833-22.251 17.021-22.251 17.021-20.555 11.815-64.634-4.989-75.134-8.489z" fill="#D3A8A4"/><path d="M336.322 464.071c-.18 1.212-.351 2.393-.522 3.565.171-1.172.342-2.353.522-3.565zM336.464 463.15c0-.32.09-.641.14-1.001-.04.36-.1.681-.14 1.001z" fill="#000" opacity=".3"/><path d="M285 240l-14.5-5c-1-1.5 1.429-18.5 7.5-27 5-7.001 12.5-11.5 17.5-9.5 15-2 41-10.5 52.5 24 3.772 11.315 11.5 46.5 11.5 90.5 0 34.063-7 44.5-23 44.5-24.5 0-41.5-35.167-43.5-48-2 1.6-6.167 3-8 3.5 3.6-7.2 3.167-61.667 2.5-88-1 7-2.5 13.833-2.5 15z" fill="#00181B"/><path d="M335.864 521L340 540h-10c2-9 5.227-16.833 5.864-19z" fill="#E1E1E1"/><path d="M336 521l4 19h8l-4-14.5 10.5-6c-4.8.8-14.333 1.333-18.5 1.5z" fill="#C4C4C4"/><path d="M155 350h-23l9 22h23l-9-22z" fill="#24AD79"/><path d="M187.499 407c2 1.2 65.228 15.022 78.228 20.855l35 23-8.5-3.5C273.393 440.855 195.699 424 182.499 416c-16.5-10-16.5-18-22-20.5s-2-11.5-8.5-17c-5.2-4.4-5.5-8.833-5-10.5-2-2-2.166-5.5-2-7-.4-1.6.834-2.667 1.5-3l15.5 9-2-4.5c-1.5-1.167-4.9-3.9-6.5-5.5-1.6-1.6-1-2.667-.5-3l7.5 5.5 6.5 8-1 2-14-4c6 7.167 18.4 22.6 20 27 2 5.5 13 13 15.5 14.5z" fill="#000" fill-opacity=".2"/><path d="M175 370.5c1.6 2 4.667 2.833 6 3v17c-5 0-7.295.088-11-1.5-3.5-1.5-6.5-4.5-8.5-7.5s-6.616-6.837-9.5-9c-4-3-2.167-4.333-1.5-4.5-.5-.5-1-.7-3-3.5s-.5-3.833.5-4c-2-2-2.5-3.5-.5-4s8 4 10.5 6c.781.625 6.5 6 7.5 6s-2.76-5.14-4-7c-1-1.5-7.293-5.793-8-6.5-1-1-1.5-2.5 0-3 1.342-.447 6.5 3 9 5s10.5 11 12.5 13.5z" fill="#E2BBA6"/><path d="M444.601 523.311a5566.826 5566.826 0 00-10.328 17.371h-1.878c2.66-4.695 8.356-14.742 9.859-17.371 1.878-3.286-9.859-10.328-3.756-20.187 6.103-9.858 19.718-56.335 22.534-76.992 2.817-20.656 7.512-31.923 9.39-6.572 1.877 25.351-.47 96.71-12.206 98.587-9.39 1.503-12.989 4.069-13.615 5.164z" fill="#00B67A"/><path d="M444.709 519.517c5.164-12.676 16.713-50.421 21.596-99.996" stroke="#fff"/><path d="M389.783 513.883c-.375 17.276 3.913 24.725 6.103 26.29h27.699c6.009 0 8.137-8.45 8.45-12.675-2.347-80.279 23.473-152.613 11.737-155.393-17.84-4.225-53.519 120.183-53.989 141.778z" fill="#00B67A" stroke="#00B67A"/><path d="M409.539 541.112c-3.281-25.443-3.094-90.546 23.904-147.412M423.585 522.803c-3.443 1.095-11.173 4.976-14.554 11.737-2.973-1.252-9.952-5.352-14.083-11.737m28.637-19.248c-3.756.313-12.112 2.16-15.493 7.042-1.877-1.095-6.384-4.789-9.389-10.798m24.882-18.309c-2.504 0-8.826.657-14.084 3.286-1.878-1.408-5.821-5.445-6.573-10.328m21.596-17.37c-2.035-.156-7.136.188-11.267 2.817-1.252-.939-3.756-3.85-3.756-7.981m18.309-16.901c-2.347-.626-7.793-.657-10.798 4.225-.626-1.721-1.878-6.103-1.878-9.858m16.901-14.084c-2.034 0-6.572.563-8.45 2.817-.47-1.409-1.409-4.789-1.409-7.042M460.203 502.147c-1.721 2.034-6.478 6.291-11.736 7.042-1.252-1.252-3.568-5.07-2.817-10.328M462.55 487.593c-1.565 1.409-5.634 4.319-9.39 4.695-.939-.939-2.817-3.756-2.817-7.512m13.615-10.797c-1.096 1.408-4.037 4.225-7.042 4.225-.939-.782-2.817-3.099-2.817-6.103m11.737-13.145c-.783 1.252-3.005 3.756-5.634 3.756-1.095-.626-3.286-2.629-3.286-5.634m10.328-12.675c-.782 1.095-2.817 3.286-4.694 3.286-.783-.47-2.348-1.972-2.348-4.225m7.042-12.206c-.469 1.095-1.596 3.286-2.347 3.286-.939 0-2.347-1.878-2.347-3.286" stroke="#fff"/><path d="M377.107 528.436c0 6.761-3.755 10.642-5.633 11.737h-6.573c-6.384 0-9.232-7.824-9.858-11.737-6.573-17.37 4.225-62.908 9.858-76.053 5.634-13.145 10.337-22.282 6.573 6.573-4.225 32.393 5.633 61.03 5.633 69.48z" fill="#00B67A" stroke="#00B67A"/><path d="M368.187 540.643a181.36 181.36 0 01-1.021-6.103m-.857-69.481c-1.074 5.784-1.713 11.992-2.029 18.309m8.132 43.66c-1.463 1.409-4.561 4.883-5.246 7.512m0 0c-1.694-.626-5.739-2.817-8.368-6.573m8.368 6.573a274.928 274.928 0 01-1.649-13.145m5.487-6.573c-1.311 1.096-4.243 3.944-5.487 6.573m0 0c-1.771-.626-5.78-2.723-7.658-6.103m7.658 6.103c-.405-3.972-.76-8.239-1.021-12.676m4.63-4.694c-1.053.939-3.452 3.192-4.63 4.694m0 0c-1.274-.469-4.384-2.065-6.637-4.694m6.637 4.694c-.242-4.112-.403-8.37-.449-12.675m4.14-2.817c-1.038.469-3.32 1.69-4.14 2.817m0 0c-1.124-.626-3.653-2.348-4.78-4.225m4.78 4.225a210.96 210.96 0 01.233-12.676m3.437-2.347c-.726.313-2.431 1.22-3.437 2.347m0 0c-.732-.156-2.478-1.127-3.604-3.756" stroke="#fff"/><path d="M350.347 522.803c2.629 7.136 3.6 14.553 3.756 17.37h-2.817c-.469-3.286-.939-12.206-5.164-17.37-4.225-5.164-18.309.939-21.126-7.042-2.816-7.981-33.332-75.584-38.496-84.034-5.164-8.45-33.801-44.13 9.39-8.45 43.19 35.679 60.56 70.419 60.091 80.278-.469 9.859-8.92 10.328-5.634 19.248z" fill="#00B67A" stroke="#00B67A"/><path d="M346.592 517.639c-2.191-13.615-14.741-49.482-47.416-84.035M348.939 494.635c-.469 2.973-2.065 9.577-4.694 12.206-3.443-.156-12.488-1.972-21.126-7.981m18.778-16.9c0 2.66-.751 8.45-3.755 10.328-2.661-.47-9.389-2.723-15.023-7.981m10.328-15.492c.47 1.877.751 6.384-1.878 9.389-2.66-.47-9.107-2.441-13.614-6.573m6.572-13.614c.157 1.721.282 5.54-.469 7.042-2.347-.157-7.793-.939-10.798-2.817m1.409-15.962c.469.939 1.126 3.287 0 5.164-1.409 2.348-9.39-1.877-11.737-2.816" stroke="#fff"/></svg>

<svg width="474" height="542" viewBox="0 0 474 542" fill="none" xmlns="http://www.w3.org/2000/svg">
<path d="M110.5 0.260817C53.3 -3.73918 13 39.2608 0 61.2608H305C294.333 44.7608 263.5 15.4607 225.5 30.2607C178 48.7607 182 5.26082 110.5 0.260817Z" fill="white"/>
<path d="M403.715 112.166C440.098 109.62 465.731 136.994 474 151H280C286.785 140.496 306.397 121.843 330.567 131.265C360.78 143.042 358.236 115.349 403.715 112.166Z" fill="white"/>
<path d="M164.632 260.062H237.486V540H0V506.897C0 480.03 6.5087 463.238 22.589 448.366C35.4533 436.467 56.0259 417.181 64.7041 409.025C68.2775 396.711 78.717 361.241 91.8875 317.87C108.351 263.657 130.94 260.062 164.632 260.062Z" fill="#081B42"/>
<path d="M53.8018 383.598C58.1148 387.436 66.3288 391.109 69.5962 392.069L64.8653 408.573C57.677 410.013 41.2548 414.207 36.1577 406.147C29.7862 396.072 35.1774 376.402 41.0588 376.881C46.9402 377.361 48.4105 378.8 53.8018 383.598Z" fill="white"/>
<path d="M130.217 280.928L232.567 280.495V400.436C193.963 400.147 101.939 400.436 89.2162 400.436C79.0245 400.436 78.2332 394.085 79.1031 390.477C83.6703 373.734 96.2623 334.967 103.57 312.104C110.877 289.242 116.295 280.928 130.217 280.928Z" fill="#E9E9EA"/>
<path d="M189.874 280.705L150.139 400.421H190.076L228.763 280.499L189.874 280.705Z" fill="white"/>
<path d="M143.503 400.421L183.732 280.928H178.328L137.799 400.421H143.503Z" fill="white"/>
<path d="M98.7207 504.348C98.7207 493.302 107.675 484.348 118.721 484.348H236.106V540H98.7207V504.348Z" fill="#1C3B78"/>
<path d="M15.981 484.288C14.4636 477.422 19.6899 470.914 26.7218 470.914H68.932C74.0925 470.914 78.5592 474.502 79.6728 479.541L83.9292 498.8C85.4467 505.666 80.2204 512.174 73.1884 512.174H30.9782C25.8178 512.174 21.351 508.587 20.2374 503.548L15.981 484.288Z" fill="#E1E1E1"/>
<rect x="23.3086" y="516.971" width="59.6467" height="7.6762" rx="3.8381" fill="#E1E1E1"/>
<path d="M306.683 260.062H236.797V540H471.113V506.896C471.113 480.03 464.613 463.238 448.552 448.365C435.703 436.467 415.156 417.181 406.488 409.025C402.919 396.711 392.493 361.24 379.338 317.87C362.895 263.657 340.334 260.062 306.683 260.062Z" fill="#081B42"/>
<path d="M417.541 383.598C413.192 387.436 405.024 391.714 401.729 392.674L406.31 408.451C413.558 409.89 430.191 414.207 435.33 406.146C441.754 396.071 436.319 376.401 430.389 376.881C424.459 377.361 422.976 378.8 417.541 383.598Z" fill="white"/>
<path d="M341.055 280.928L231.978 280.503L231.791 400.445C270.347 400.157 369.298 400.436 382.006 400.436C392.185 400.436 392.975 394.085 392.106 390.477C387.545 373.734 374.968 334.966 367.67 312.104C360.371 289.242 354.96 280.928 341.055 280.928Z" fill="#E9E9EA"/>
<path d="M372.514 504.348C372.514 493.302 363.559 484.348 352.514 484.348H236.108V540H372.514V504.348Z" fill="#1C3B78"/>
<path d="M455.979 483.715C457.091 477.012 451.922 470.914 445.128 470.914H418.813C413.433 470.914 408.842 474.806 407.961 480.113L404.765 499.373C403.653 506.075 408.822 512.174 415.617 512.174H441.931C447.311 512.174 451.902 508.282 452.783 502.975L455.979 483.715Z" fill="#E1E1E1"/>
<rect width="43.1378" height="7.6762" rx="3.8381" transform="matrix(-1 0 0 1 447.832 516.971)" fill="#E1E1E1"/>
<path d="M258.824 394.743C258.824 394.743 269.688 393.282 278.384 382.468C278.384 382.468 276.215 391.559 287.813 401.973C295.846 409.162 289.58 447.46 286.196 454.219C286.196 454.219 318.248 485.799 370.422 460.507C370.422 460.507 357.318 412.816 356.364 385.852C355.189 355.233 351.645 335.549 340.921 306.642C330.197 277.735 327.656 261.785 329.112 246.566C330.568 231.347 329.835 207.516 303.005 201.759C276.175 196.002 273.002 227.552 273.002 227.552C273.002 227.552 270.632 267.893 281.186 277.135C290.433 285.285 306.289 274.942 306.289 274.942C306.289 274.942 309.964 293.655 305.706 300.264C305.706 300.264 299.832 306.982 285.323 312.76C270.17 318.767 267.74 362.823 259.707 370.893" fill="#E2BBA6"/>
<path d="M289.771 202.23C288.697 208.788 286.98 219.322 285.394 229.705C286.398 219.922 288.255 209.089 289.541 202.31L289.771 202.23Z" fill="#CEA999"/>
<path d="M273.023 227.592L285.394 229.704L284.771 239.116C284.651 244.283 285.062 248.428 286.338 250.391C291.679 258.631 293.808 239.377 298.226 239.797C302.644 240.218 304.703 245.244 301.53 253.815C298.357 262.386 309.764 264.769 310.748 269.575C311.732 274.381 319.393 301.445 310.748 310.707L297.503 306.702C300.502 304.934 303.257 302.783 305.697 300.304C309.954 293.696 306.279 274.982 306.279 274.982C306.279 274.982 290.434 285.325 281.176 277.175C280.41 276.489 279.735 275.708 279.168 274.852C273.896 267.472 273.143 248.739 272.993 244.723C272.842 240.708 273.023 227.592 273.023 227.592Z" fill="#CEA999"/>
<path d="M339.294 302.166C339.294 302.166 344.094 306.171 348.422 318.186C352.749 330.202 341.493 311.268 341.493 311.268L340.168 304.569L339.294 302.166Z" fill="#292289"/>
<path d="M287.502 450.634C287.502 450.634 272.136 505.596 273 540H375H390C390 540 389 512.5 384.5 494.5C380 476.5 368.525 453.287 368.525 453.287C368.525 453.287 323.992 476.106 287.502 450.634Z" fill="#F4EFEF"/>
<path d="M181 373.5C196 376 232.045 385.401 250.049 368.17C263.926 354.893 270.131 318.847 285.324 312.8C290.862 310.665 296.108 307.842 300.938 304.399C324.735 312.239 335.449 309.475 340.179 304.549C340.43 305.24 347.813 311.076 352 322C357 353 358.835 366.728 359.94 397.337C360.944 424.301 368.535 453.287 368.535 453.287C361.195 486.74 286.197 454.219 286.197 454.219C289.149 446.369 295.817 409.162 287.814 401.972C276.216 391.559 278.385 382.468 278.385 382.468C269.689 393.301 256.134 399.489 256.134 399.489C235.579 411.274 192 394.5 181 390.902V373.5Z" fill="#F4C7C3"/>
<path d="M180.999 391V385.5C180.999 385.5 215.999 401.972 238.499 399.489C245.999 398.662 254.827 392.28 264.176 389.507C273.524 386.733 282.682 369.021 282.682 369.021C283.485 387.394 295.565 390.288 302.915 405.267C308.367 416.381 304.441 445.738 302.051 460.156C292.703 457.032 286.196 454.219 286.196 454.219C289.148 446.369 295.816 409.162 287.813 401.972C276.215 391.559 278.384 382.468 278.384 382.468C269.688 393.301 256.133 399.489 256.133 399.489C235.578 411.304 191.499 394.5 180.999 391Z" fill="#D3A8A4"/>
<g style="mix-blend-mode:multiply" opacity="0.3">
<path d="M336.322 464.071C336.142 465.283 335.971 466.464 335.8 467.636C335.971 466.464 336.142 465.283 336.322 464.071Z" fill="black"/>
</g>
<g style="mix-blend-mode:multiply" opacity="0.3">
<path d="M336.464 463.15C336.464 462.83 336.554 462.509 336.604 462.149C336.564 462.509 336.504 462.83 336.464 463.15Z" fill="black"/>
</g>
<path d="M285 240L270.5 235C269.5 233.5 271.929 216.5 278 208C283 200.999 290.5 196.5 295.5 198.5C310.5 196.5 336.5 188 348 222.5C351.772 233.815 359.5 269 359.5 313C359.5 347.063 352.5 357.5 336.5 357.5C312 357.5 295 322.333 293 309.5C291 311.1 286.833 312.5 285 313C288.6 305.8 288.167 251.333 287.5 225C286.5 232 285 238.833 285 240Z" fill="#00181B"/>
<path d="M335.864 521L340 540H330C332 531 335.227 523.167 335.864 521Z" fill="#E1E1E1"/>
<path d="M336 521L340 540H348L344 525.5L354.5 519.5C349.7 520.3 340.167 520.833 336 521Z" fill="#C4C4C4"/>
<path d="M155 350H132L141 372H164L155 350Z" fill="#24AD79"/>
<path d="M187.499 407C189.499 408.2 252.727 422.022 265.727 427.855L300.727 450.855L292.227 447.355C273.393 440.855 195.699 424 182.499 416C165.999 406 165.999 398 160.499 395.5C154.999 393 158.499 384 151.999 378.5C146.799 374.1 146.499 369.667 146.999 368C144.999 366 144.833 362.5 144.999 361C144.599 359.4 145.833 358.333 146.499 358L161.999 367L159.999 362.5C158.499 361.333 155.099 358.6 153.499 357C151.899 355.4 152.499 354.333 152.999 354L160.499 359.5L166.999 367.5L165.999 369.5L151.999 365.5C157.999 372.667 170.399 388.1 171.999 392.5C173.999 398 184.999 405.5 187.499 407Z" fill="black" fill-opacity="0.2"/>
<path d="M175 370.5C176.6 372.5 179.667 373.333 181 373.5V390.5C176 390.5 173.705 390.588 170 389C166.5 387.5 163.5 384.5 161.5 381.5C159.5 378.5 154.884 374.663 152 372.5C148 369.5 149.833 368.167 150.5 368C150 367.5 149.5 367.3 147.5 364.5C145.5 361.7 147 360.667 148 360.5C146 358.5 145.5 357 147.5 356.5C149.5 356 155.5 360.5 158 362.5C158.781 363.125 164.5 368.5 165.5 368.5C166.5 368.5 162.74 363.36 161.5 361.5C160.5 360 154.207 355.707 153.5 355C152.5 354 152 352.5 153.5 352C154.842 351.553 160 355 162.5 357C165 359 173 368 175 370.5Z" fill="#E2BBA6"/>
<path d="M444.601 523.311C442.348 527.067 436.777 536.456 434.273 540.682H432.395C435.055 535.987 440.751 525.94 442.254 523.311C444.132 520.025 432.395 512.983 438.498 503.124C444.601 493.266 458.216 446.789 461.032 426.132C463.849 405.476 468.544 394.209 470.422 419.56C472.299 444.911 469.952 516.27 458.216 518.147C448.826 519.65 445.227 522.216 444.601 523.311Z" fill="#00B67A"/>
<path d="M444.709 519.517C449.873 506.841 461.422 469.096 466.305 419.521" stroke="white"/>
<path d="M389.783 513.883C389.408 531.159 393.696 538.608 395.886 540.173H423.585C429.594 540.173 431.722 531.723 432.035 527.498C429.688 447.219 455.508 374.885 443.772 372.105C425.932 367.88 390.253 492.288 389.783 513.883Z" fill="#00B67A" stroke="#00B67A"/>
<path d="M409.539 541.112C406.258 515.669 406.445 450.566 433.443 393.7" stroke="white"/>
<path d="M423.585 522.803C420.142 523.898 412.412 527.779 409.031 534.54C406.058 533.288 399.079 529.188 394.948 522.803M423.585 503.555C419.829 503.868 411.473 505.715 408.092 510.597C406.215 509.502 401.708 505.808 398.703 499.799M423.585 481.49C421.081 481.49 414.759 482.147 409.501 484.776C407.623 483.368 403.68 479.331 402.928 474.448M424.524 457.078C422.489 456.922 417.388 457.266 413.257 459.895C412.005 458.956 409.501 456.045 409.501 451.914M427.81 435.013C425.463 434.387 420.017 434.356 417.012 439.238C416.386 437.517 415.134 433.135 415.134 429.38M432.035 415.296C430.001 415.296 425.463 415.859 423.585 418.113C423.115 416.704 422.176 413.324 422.176 411.071" stroke="white"/>
<path d="M460.203 502.147C458.482 504.181 453.725 508.438 448.467 509.189C447.215 507.937 444.899 504.119 445.65 498.861" stroke="white"/>
<path d="M462.55 487.593C460.985 489.002 456.916 491.912 453.16 492.288C452.221 491.349 450.343 488.532 450.343 484.776M463.958 473.979C462.862 475.387 459.921 478.204 456.916 478.204C455.977 477.422 454.099 475.105 454.099 472.101M465.836 458.956C465.053 460.208 462.831 462.712 460.202 462.712C459.107 462.086 456.916 460.083 456.916 457.078M467.244 444.403C466.462 445.498 464.427 447.689 462.55 447.689C461.767 447.219 460.202 445.717 460.202 443.464M467.244 431.258C466.775 432.353 465.648 434.544 464.897 434.544C463.958 434.544 462.55 432.666 462.55 431.258" stroke="white"/>
<path d="M377.107 528.436C377.107 535.197 373.352 539.078 371.474 540.173H364.901C358.517 540.173 355.669 532.349 355.043 528.436C348.47 511.066 359.268 465.528 364.901 452.383C370.535 439.238 375.238 430.101 371.474 458.956C367.249 491.349 377.107 519.986 377.107 528.436Z" fill="#00B67A" stroke="#00B67A"/>
<path d="M368.187 540.643C367.862 538.902 367.515 536.849 367.166 534.54M366.309 465.059C365.235 470.843 364.596 477.051 364.28 483.368M372.412 527.028C370.949 528.437 367.851 531.911 367.166 534.54M367.166 534.54C365.472 533.914 361.427 531.723 358.798 527.967M367.166 534.54C366.595 530.766 366.017 526.306 365.517 521.395M371.004 514.822C369.693 515.918 366.761 518.766 365.517 521.395M365.517 521.395C363.746 520.769 359.737 518.672 357.859 515.292M365.517 521.395C365.112 517.423 364.757 513.156 364.496 508.719M369.126 504.025C368.073 504.964 365.674 507.217 364.496 508.719M364.496 508.719C363.222 508.25 360.112 506.654 357.859 504.025M364.496 508.719C364.254 504.607 364.093 500.349 364.047 496.044M368.187 493.227C367.149 493.696 364.867 494.917 364.047 496.044M364.047 496.044C362.923 495.418 360.394 493.696 359.267 491.819M364.047 496.044C364.003 491.832 364.07 487.576 364.28 483.368M367.717 481.021C366.991 481.334 365.286 482.241 364.28 483.368M364.28 483.368C363.548 483.212 361.802 482.241 360.676 479.612" stroke="white"/>
<path d="M350.347 522.803C352.976 529.939 353.947 537.356 354.103 540.173H351.286C350.817 536.887 350.347 527.967 346.122 522.803C341.897 517.639 327.813 523.742 324.996 515.761C322.18 507.78 291.664 440.177 286.5 431.727C281.336 423.277 252.699 387.597 295.89 423.277C339.08 458.956 356.45 493.696 355.981 503.555C355.512 513.414 347.061 513.883 350.347 522.803Z" fill="#00B67A" stroke="#00B67A"/>
<path d="M346.592 517.639C344.401 504.024 331.851 468.157 299.176 433.604" stroke="white"/>
<path d="M348.939 494.635C348.47 497.608 346.874 504.212 344.245 506.841C340.802 506.685 331.757 504.869 323.119 498.86M341.897 481.96C341.897 484.62 341.146 490.41 338.142 492.288C335.481 491.818 328.753 489.565 323.119 484.307M333.447 468.815C333.917 470.692 334.198 475.199 331.569 478.204C328.909 477.734 322.462 475.763 317.955 471.631M324.527 458.017C324.684 459.738 324.809 463.557 324.058 465.059C321.711 464.902 316.265 464.12 313.26 462.242M314.669 446.28C315.138 447.219 315.795 449.567 314.669 451.444C313.26 453.792 305.279 449.567 302.932 448.628" stroke="white"/>
</svg>
